X: 15722
T: Golden Stud, The
R: reel
M: 4/4
K: Aminor
|:A3c B3d|c3e dcBd|e2 ce dcBd|cABG A3c|
A3c B3d|c3e dcBd|e2 ce dcBd|cABG A3e:|
|:f2 de fedf|e2 cd edce|d2 Bc dcBd|cABG A3e|
f2 de fedf|e2 cd edce|d2 Bc dcBd|cABG A4:|

